X:1
T:Mission Bell (Transcribed)
T:Mission Bell
C:Jesse D. Hodges and William Michael
Z:All Rights Reserved
L:1/8
M:4/4
K:Bb
V:1 treble nm="Melody" snm="Choir"
%%MIDI program 53
V:1
"Bb " d2 dd"Fmin" c>_A- A2 |"Bb " z d2 d"Fmin" (3ccc- (3:2:2c c2 |"Bb " z d2 d"Fmin" c_A Ac | %3
w: Say that you love me; *|say those pret- ty words * and|I will give my love to|
"Bb " d4"Ebmin" z4 |"Gb " z4"F7" z F GF |"Bb " d>d- dd/d/"F7" (3edc- c2 | %6
w: you.|My love is|high- er * than a mis- sion bell, *|
"Bb " z d- d/B/B/B/"F7" (3cBA- A2 |"Eb " z B- B/B/B/B/"F7" (3AAG- GA |"Bb " B3 d"F7" c2 z f | %9
w: deep- * er than a wish- ing well, *|strong- * er than a ma- gic spell * my|love for you. It's|
"Bb " d>d- dd/d/"F7" (3edc- c2 |"Bb " z d- d/B/B/B/"F7" (3cBA- A2 | %11
w: wi- der * than the wid- est sea, *|long- * er than a me- mo- ry, *|
"Eb " z B- B/B/B/B/"F7" (3AAG- GA |"Eb " B2(3zcB"F7" A2(3zGA |"Eb " B2(3zcB"F7" A2(3zGA | %14
w: sweet- * er than a ho- ney tree, * my|love, oh... oh... oh... m\- y|love, mm... mm... mm... fo- r|
"Bb " B4"Bb7" z4 |"F7" z c cc"Bb " (3Bcd- d2 |"Eb " z e e/e/e"Bb " (3ccd- d2 | %17
w: you.|Give me your heart of gold, *|your hea- ven- ly ma- gic touch, *|
"Eb " z e ee"F7" (3ccd- dc |"Eb " B2(3zcB"F7" A2 z c |"Bb " B2 z2"F7" z4 | %20
w: to cher- ish, have and hold, * I|need you- r love so|much.|
"Bb " fd Bd"F7" e/ z/ c/A/- A/B/c |"Bb " fd Bd"F7" e/ z/ c/A/- A/B/c | %22
w: ||
"Bb " fd Bd"F7" e/ z/ c/A/- A/B/c |"Bb " f/ z/ d/ z/ f/ z/ d/ z/"F7" g/ z/ e/ z/ a/ z/ f/ z/ | %24
w: ||
"Bb " fd Bd"F7" e/ z/ c/A/- A/B/c |"Bb " fd Bd"F7" e/ z/ c/A/- A/B/c | %26
w: ||
"Bb " fd Bd"F7" e/ z/ c/A/- A/B/c |"Bb " d/ z/ d/ z/ c/ z/ c/ z/"F7" B/ z/ c/ z/ d/ z/ f/ z/ | %28
w: ||
"Bb " d2 dd"Fmin" c>_A- A2 |"Bb " z d2 d"Fmin" (3ccc- (3:2:2c c2 |"Bb " z d2 d"Fmin" c_A Ac | %31
w: Say that you love me; *|say those pret- ty words * and|I will give my love to|
"Bb " d4"Ebmin" z4 |"Gb " z4"F7" z F GF |"Bb " d>d- dd/d/"F7" (3edc- c2 | %34
w: you.|My love is|warm- er * than a day in spring, *|
"Bb " z d- d/B/B/B/"F7" (3cBA- A2 |"Eb " z B- B/B/B/B/"F7" (3AAG- GA |"Bb " B3 d"F7" c2 z f | %37
w: bright- * er than a dia- mond ring, *|great- * er than a migh- ty king * my|love for you. It's|
"Bb " d>d- dd/d/"F7" (3edc- c2 |"Bb " z d- d/B/B/B/"F7" (3cBA- A2 |"Eb " z B- BB"F7" AA GA | %40
w: strong- er * than the tal- lest tree, *|soft- * er than a sum- mer breeze, *|oh, * I ask you plea- se|
"Eb " B2(3zcB"F7" A2(3zGA |"Eb " B2(3zcB"F7" A2 z c |"Bb " B4"F7" c4 |"Bbmaj7" B8 |] %44
w: Give yo- ur love, yo- ur|love, swe- et love to|me. *||

